X: 31388
T: Paddy O'Snap's
R: slip jig
M: 9/8
K: Dmajor
g|:f2d dcd fed|~g3 efd cB[Aa]|f2d dcd fed|efg ABc d3:|
|:a2A ABG FAd|ABe efd efg|a2A ABG FAd|efg ABc d2z:|

